X:135
M:6/8
L:1/8
K:Gmin
|:d|gfg def|Bcd "tr"f2d|gfe dcB|gfe d2a|bag fdd|fdd ecc|d g2 fdc|BGG G2:|

